img/icon-notion.svg

<svg width="25" height="26" viewBox="0 0 25 26" fill="none" xmlns="http://www.w3.org/2000/svg">
<path d="M4.30439 4.55757C5.10872 5.21323 5.41339 5.16692 6.93187 5.06536L21.2473 4.20659C21.552 4.20659 21.2985 3.90192 21.1962 3.85074L18.8181 2.13239C18.3656 1.77654 17.7562 1.37518 16.592 1.47187L2.73391 2.48744C2.22613 2.53375 2.12457 2.78805 2.32769 2.99116L4.30439 4.55757ZM5.16316 7.89677V22.9564C5.16316 23.7648 5.56532 24.0695 6.47527 24.0183L22.2085 23.1084C23.1184 23.0572 23.224 22.5031 23.224 21.8434V6.88526C23.224 6.22473 22.9697 5.87375 22.4116 5.92494L5.97236 6.88526C5.36302 6.93644 5.16397 7.23624 5.16397 7.8927L5.16316 7.89677ZM20.6932 8.70028C20.7948 9.1577 20.6932 9.61024 20.2358 9.66548L19.4786 9.81822V20.9342C18.8181 21.2901 18.2136 21.4932 17.7099 21.4932C16.8975 21.4932 16.6943 21.2389 16.0891 20.4817L11.1298 12.6959V20.2282L12.6995 20.5841C12.6995 20.5841 12.6995 21.494 11.4345 21.494L7.94338 21.6971C7.84182 21.494 7.94338 20.9862 8.29923 20.8887L9.20918 20.6344V10.6778L7.94419 10.5762C7.84264 10.1188 8.09693 9.46318 8.80296 9.41281L12.5476 9.15851L17.7099 17.0458V10.0676L16.3937 9.91491C16.2922 9.36081 16.6943 8.95458 17.2021 8.90746L20.6932 8.70028ZM1.57048 1.1217L15.9875 0.0598192C17.7562 -0.0929225 18.2136 0.00863448 19.3259 0.817028L23.9301 4.05385C24.6873 4.60795 24.9416 4.76069 24.9416 5.36597V23.1092C24.9416 24.2222 24.5353 24.8779 23.1217 24.9795L6.3729 25.991C5.31508 26.0422 4.8073 25.8894 4.24833 25.1826L0.858766 20.7815C0.253486 19.9731 0 19.3678 0 18.6618V2.89123C0 1.98128 0.406228 1.22407 1.56966 1.12251L1.57048 1.1217Z" fill="#17171B"/>
</svg>

<svg width="25" height="26" fill="none" xmlns="http://www.w3.org/2000/svg"><path d="M4.304 4.558c.805.655 1.11.609 2.628.507l14.315-.858c.305 0 .052-.305-.05-.356l-2.379-1.719c-.452-.355-1.062-.757-2.226-.66L2.734 2.487c-.508.047-.61.301-.406.504l1.976 1.567Zm.86 3.339v15.06c0 .808.401 1.113 1.311 1.061l15.734-.91c.91-.05 1.015-.605 1.015-1.265V6.885c0-.66-.254-1.011-.812-.96l-16.44.96c-.609.051-.808.351-.808 1.008v.004Zm15.53.803c.1.458 0 .91-.458.965l-.757.153v11.116c-.66.356-1.265.56-1.77.56-.811 0-1.015-.255-1.62-1.012l-4.96-7.786v7.532l1.57.356s0 .91-1.264.91l-3.492.203c-.101-.203 0-.71.356-.808l.91-.255v-9.956l-1.265-.102c-.101-.457.153-1.113.859-1.163l3.745-.254 5.162 7.887v-6.978l-1.316-.153c-.102-.554.3-.96.808-1.008l3.491-.207ZM1.57 1.122 15.988.06c1.768-.153 2.226-.051 3.338.757l4.604 3.237c.757.554 1.012.707 1.012 1.312v17.743c0 1.113-.407 1.769-1.82 1.87l-16.75 1.012c-1.057.051-1.565-.102-2.124-.808l-3.39-4.401C.254 19.973 0 19.367 0 18.662V2.892c0-.91.406-1.668 1.57-1.77Z" fill="#17171B"/></svg>
